!!!OTL: 120. Die Lorelei.
!!!COM: Fr. Silcher
!!!ODT: 1838
!!!ARE: Europa, Mitteleuropa, Deutschland
!!!SCT: B0120
!!!TXL: @@DE
!!!YEM: Copyright 1995, estate of Helmut Schaffrath.
**kern	**text
*ICvox	*
*Ivox	*
*M6/8	*
*clefG2	*
*k[f#c#]	*
*D:	*
!LO:TX:a:t=Mäßig langſam. 	!
{8a	Jch
=1	=1
(8.a	weiß
16b/)	nicht
8a	was
(8dd	ſoll
8cc#)	es
8b	be-
=2	=2
4.a^	-deu-
4g}	-ten,
{8g	daß
=3	=3
4f#	ich
8f#	ſo
(16gqq	.
8eL)	trau-
8dJ	.
8e	-rig
=4	=4
[4.f#	bin;
8f#]	.
8r}	.
{8a	ein
=5	=5
8.a	Mär-
16b/	-chen
8a	aus
8ddL	al-
8cc#J	.
8b	-ten
=6	=6
4.a^	Ʒei-
4g}	-ten,
{8g	das
=7	=7
4f#	kommt
8f#	mir
8a	nicht
8g	aus
8e	dem
=8	=8
[>4.d	Sinn.
8d]	.
8r}	.
{8f#	Die
=9	=9
8.eL	Luft
16f#J	.
8e	iſt
8a	kühl,
8e	und
8a	es
=10	=10
4.cc#	dun-
4b}	-kelt,
{8b	und
=11	=11
4a	ru-
8a	-hig
8g#L	fließet
8aJ	.
8b/	der
=12	=12
[4.a	Rhein;
4a]}	.
{8a	der
=13	=13
8.a	Gip-
16b/	-fel
8a	des
8ddL	Ber-
8cc#J	.
8b	-ges
=14	=14
(4a	fun-
8ff#)	.
4ee}	-kelt
{8ee	im
=15	=15
4dd	A-
8dd	-bend-
16ddqq	.
8cc#L	-ſon-
8bJ	.
8cc#	-nen-
=16	=16
[4.dd	-ſchein.
8dd]	.
8r}	.
==	==
!!!AGN: Ballade, Romanze
!!!GTL: Balladen und Romanzen
!!!ONB: ESAC (Essen Associative Code) Database: BOEHME
!!!AMT: compound duple
!!!AIN: vox
!!!EED: Helmut Schaffrath
!!!EEV: 1.0
!!!RDF**kern: > = above
!!@@COMMENT:"Gedicht von H. Heine, 1823.[...] Melodie von Friedrich Silcher in dessen "XII Volkslieder für vier Männerstimmen, Tübingen (G. Laur)
!!VI. Heft Nr. 8 (1838)."
!!@@END:
!!Text: H. Heine
!!!URL-scan: https://archive.org/details/BoehmeVtLieder1895/page/n127/mode/2up
!!!ENC: Anna Maria Matuszewska
!!!EEV: 2024/18/06
*-	*-
